assets/icons/uE045-piechart.svg

<svg xmlns="http://www.w3.org/2000/svg" width="896" height="1232" viewBox="0 0 896 1232"><path d="M448 56q185 0 316.5 131.5T896 504 764.5 820.5 448 952 131.5 820.5 0 504t131.5-316.5T448 56zm28 57v347l313-149q-47-85-130-138t-183-60zm-29 782q146 0 256-96L420 515V111q-153 11-258.5 123.5T56 502q0 163 114.5 278T447 895zm297-135q96-112 96-257 0-71-25-138L496 512z"/></svg>

<?xml version="1.0" encoding="UTF-8" standalone="no"?><svg   xmlns:svg="http://www.w3.org/2000/svg"   xmlns="http://www.w3.org/2000/svg"   version="1.1"   width="896"   height="1232"   viewBox="0 0 896 1232">  <path     d="M448 56Q633 56 764.5 187.5T896 504T764.5 820.5T448 952T131.5 820.5T0 504T131.5 187.5T448 56zM476 113V460L789 311Q742 226 659 173T476 113zM447 895Q593 895 703 799L420 515V111Q267 122 161.5 234.5T56 502Q56 665 170.5 780T447 895zM744 760Q840 648 840 503Q840 432 815 365L496 512z"     id="icon132" /></svg>
